X: 4256
T: Bob Crowley's
R: jig
M: 6/8
K: Dmajor
|:AG|FAB dcd|fae fed|Bdg Adf|edB G2B|
FAB dcd|fae fed|Adc AGE|DFE D:|
|:fg|aba fef|gfg edB|AFF BFF|AGG BGA|
aba fef|gfg edB|Adc AFE|DFE D:|

